images/icons/site-logo.svg

<svg width="119" height="32" viewBox="0 0 119 32" fill="none" xmlns="http://www.w3.org/2000/svg">
<path d="M48.0883 10.292V23H45.5323V17.474H40.0963V23H37.5583V10.292H40.0963V15.44H45.5323V10.292H48.0883ZM54.9983 12.902C55.9703 12.902 56.8403 13.106 57.6083 13.514C58.3883 13.922 59.0003 14.516 59.4443 15.296C59.8883 16.064 60.1103 16.97 60.1103 18.014C60.1103 19.058 59.8883 19.964 59.4443 20.732C59.0003 21.5 58.3883 22.094 57.6083 22.514C56.8403 22.922 55.9703 23.126 54.9983 23.126C54.0263 23.126 53.1503 22.922 52.3703 22.514C51.6023 22.094 50.9963 21.5 50.5523 20.732C50.1083 19.964 49.8863 19.058 49.8863 18.014C49.8863 16.97 50.1083 16.064 50.5523 15.296C50.9963 14.516 51.6023 13.922 52.3703 13.514C53.1503 13.106 54.0263 12.902 54.9983 12.902ZM54.9983 15.098C54.2903 15.098 53.6903 15.35 53.1983 15.854C52.7063 16.346 52.4603 17.066 52.4603 18.014C52.4603 18.962 52.7063 19.688 53.1983 20.192C53.6903 20.684 54.2903 20.93 54.9983 20.93C55.7063 20.93 56.3063 20.684 56.7983 20.192C57.2903 19.688 57.5363 18.962 57.5363 18.014C57.5363 17.066 57.2903 16.346 56.7983 15.854C56.3063 15.35 55.7063 15.098 54.9983 15.098ZM66.512 12.902C67.484 12.902 68.354 13.106 69.122 13.514C69.902 13.922 70.514 14.516 70.958 15.296C71.402 16.064 71.624 16.97 71.624 18.014C71.624 19.058 71.402 19.964 70.958 20.732C70.514 21.5 69.902 22.094 69.122 22.514C68.354 22.922 67.484 23.126 66.512 23.126C65.54 23.126 64.664 22.922 63.884 22.514C63.116 22.094 62.51 21.5 62.066 20.732C61.622 19.964 61.4 19.058 61.4 18.014C61.4 16.97 61.622 16.064 62.066 15.296C62.51 14.516 63.116 13.922 63.884 13.514C64.664 13.106 65.54 12.902 66.512 12.902ZM66.512 15.098C65.804 15.098 65.204 15.35 64.712 15.854C64.22 16.346 63.974 17.066 63.974 18.014C63.974 18.962 64.22 19.688 64.712 20.192C65.204 20.684 65.804 20.93 66.512 20.93C67.22 20.93 67.82 20.684 68.312 20.192C68.804 19.688 69.05 18.962 69.05 18.014C69.05 17.066 68.804 16.346 68.312 15.854C67.82 15.35 67.22 15.098 66.512 15.098Z" fill="white"/>
<path d="M80.5096 16.448C81.2776 16.604 81.8896 16.97 82.3456 17.546C82.8136 18.11 83.0476 18.776 83.0476 19.544C83.0476 20.612 82.6876 21.458 81.9676 22.082C81.2596 22.694 80.2276 23 78.8716 23H73.4176V10.292H78.7636C80.0476 10.292 81.0316 10.574 81.7156 11.138C82.4116 11.702 82.7596 12.494 82.7596 13.514C82.7596 14.306 82.5496 14.954 82.1296 15.458C81.7216 15.962 81.1816 16.292 80.5096 16.448ZM75.9556 15.62H78.2416C78.8776 15.62 79.3576 15.482 79.6816 15.206C80.0176 14.918 80.1856 14.51 80.1856 13.982C80.1856 13.454 80.0236 13.046 79.6996 12.758C79.3756 12.47 78.8776 12.326 78.2056 12.326H75.9556V15.62ZM78.3676 20.93C79.0396 20.93 79.5556 20.786 79.9156 20.498C80.2756 20.198 80.4556 19.766 80.4556 19.202C80.4556 18.638 80.2696 18.206 79.8976 17.906C79.5376 17.594 79.0216 17.438 78.3496 17.438H75.9556V20.93H78.3676ZM88.7318 12.902C89.5718 12.902 90.2918 13.1 90.8918 13.496C91.4918 13.892 91.9178 14.426 92.1698 15.098V13.028H94.6898V23H92.1698V20.912C91.9178 21.584 91.4918 22.124 90.8918 22.532C90.2918 22.928 89.5718 23.126 88.7318 23.126C87.8918 23.126 87.1358 22.922 86.4638 22.514C85.7918 22.106 85.2638 21.518 84.8798 20.75C84.5078 19.97 84.3218 19.058 84.3218 18.014C84.3218 16.97 84.5078 16.064 84.8798 15.296C85.2638 14.516 85.7918 13.922 86.4638 13.514C87.1358 13.106 87.8918 12.902 88.7318 12.902ZM89.5238 15.116C88.7318 15.116 88.0958 15.374 87.6158 15.89C87.1358 16.406 86.8958 17.114 86.8958 18.014C86.8958 18.914 87.1358 19.622 87.6158 20.138C88.0958 20.642 88.7318 20.894 89.5238 20.894C90.2918 20.894 90.9218 20.636 91.4138 20.12C91.9178 19.592 92.1698 18.89 92.1698 18.014C92.1698 17.126 91.9178 16.424 91.4138 15.908C90.9218 15.38 90.2918 15.116 89.5238 15.116ZM102.93 12.884C104.082 12.884 105 13.262 105.684 14.018C106.368 14.774 106.71 15.836 106.71 17.204V23H104.19V17.492C104.19 16.7 103.986 16.088 103.578 15.656C103.17 15.212 102.612 14.99 101.904 14.99C101.184 14.99 100.608 15.224 100.176 15.692C99.7439 16.16 99.5279 16.832 99.5279 17.708V23H96.9899V13.028H99.5279V15.026C99.7919 14.354 100.224 13.832 100.824 13.46C101.436 13.076 102.138 12.884 102.93 12.884ZM114.775 23L111.481 18.644V23H108.943V9.68H111.481V17.168L114.757 13.028H117.763L113.569 17.996L117.871 23H114.775Z" fill="#5CE1E6"/>
<path d="M16.4062 0C13.2417 -3.77363e-08 10.1483 0.938383 7.51713 2.69649C4.88594 4.45459 2.83518 6.95345 1.62418 9.87706C0.413176 12.8007 0.096322 16.0177 0.713685 19.1214C1.33105 22.2251 2.8549 25.0761 5.09254 27.3137C7.33018 29.5513 10.1811 31.0752 13.2848 31.6926C16.3885 32.3099 19.6056 31.9931 22.5292 30.7821C25.4528 29.5711 27.9517 27.5203 29.7098 24.8891C31.4679 22.2579 32.4062 19.1645 32.4062 16L24.4062 16C24.4062 17.5823 23.9371 19.129 23.058 20.4446C22.179 21.7602 20.9295 22.7855 19.4677 23.391C18.0059 23.9965 16.3974 24.155 14.8455 23.8463C13.2937 23.5376 11.8682 22.7757 10.7494 21.6569C9.63057 20.538 8.86865 19.1126 8.55997 17.5607C8.25129 16.0089 8.40971 14.4003 9.01521 12.9385C9.62072 11.4767 10.6461 10.2273 11.9617 9.34824C13.2773 8.46919 14.824 8 16.4062 8V0Z" fill="white"/>
<path d="M16.4062 0C14.3051 -2.5056e-08 12.2245 0.413852 10.2833 1.21793C8.3421 2.022 6.57828 3.20055 5.09254 4.68629C3.6068 6.17203 2.42825 7.93586 1.62418 9.87707C0.820102 11.8183 0.40625 13.8989 0.40625 16H8.40625C8.40625 14.9494 8.61318 13.9091 9.01521 12.9385C9.41725 11.9679 10.0065 11.086 10.7494 10.3431C11.4923 9.60028 12.3742 9.011 13.3448 8.60896C14.3154 8.20693 15.3557 8 16.4062 8V0Z" fill="#5CE1E6"/>
<circle cx="16.4062" cy="16" r="5" fill="#5CE1E6"/>
<path d="M21.4062 16C21.4062 15.3434 21.2769 14.6932 21.0256 14.0866C20.7744 13.48 20.4061 12.9288 19.9418 12.4645C19.4775 12.0002 18.9263 11.6319 18.3197 11.3806C17.713 11.1293 17.0629 11 16.4062 11C15.7496 11 15.0995 11.1293 14.4928 11.3806C13.8862 11.6319 13.335 12.0002 12.8707 12.4645C12.4064 12.9288 12.0381 13.48 11.7869 14.0866C11.5356 14.6932 11.4062 15.3434 11.4063 16L16.4062 16H21.4062Z" fill="white"/>
</svg>

<svg width="119" height="32" fill="none" xmlns="http://www.w3.org/2000/svg"><path d="M48.088 10.292V23h-2.556v-5.526h-5.436V23h-2.538V10.292h2.538v5.148h5.436v-5.148h2.556Zm6.91 2.61c.972 0 1.842.204 2.61.612a4.45 4.45 0 0 1 1.836 1.782c.444.768.666 1.674.666 2.718s-.222 1.95-.666 2.718a4.602 4.602 0 0 1-1.836 1.782c-.768.408-1.638.612-2.61.612s-1.848-.204-2.628-.612a4.634 4.634 0 0 1-1.818-1.782c-.444-.768-.666-1.674-.666-2.718s.222-1.95.666-2.718a4.479 4.479 0 0 1 1.818-1.782c.78-.408 1.656-.612 2.628-.612Zm0 2.196a2.42 2.42 0 0 0-1.8.756c-.492.492-.738 1.212-.738 2.16 0 .948.246 1.674.738 2.178a2.45 2.45 0 0 0 1.8.738 2.45 2.45 0 0 0 1.8-.738c.492-.504.738-1.23.738-2.178s-.246-1.668-.738-2.16a2.42 2.42 0 0 0-1.8-.756Zm11.514-2.196c.972 0 1.842.204 2.61.612a4.45 4.45 0 0 1 1.836 1.782c.444.768.666 1.674.666 2.718s-.222 1.95-.666 2.718a4.602 4.602 0 0 1-1.836 1.782c-.768.408-1.638.612-2.61.612s-1.848-.204-2.628-.612a4.634 4.634 0 0 1-1.818-1.782c-.444-.768-.666-1.674-.666-2.718s.222-1.95.666-2.718a4.479 4.479 0 0 1 1.818-1.782c.78-.408 1.656-.612 2.628-.612Zm0 2.196a2.42 2.42 0 0 0-1.8.756c-.492.492-.738 1.212-.738 2.16 0 .948.246 1.674.738 2.178a2.45 2.45 0 0 0 1.8.738 2.45 2.45 0 0 0 1.8-.738c.492-.504.738-1.23.738-2.178s-.246-1.668-.738-2.16a2.42 2.42 0 0 0-1.8-.756Z" fill="#fff"/><path d="M80.51 16.448c.768.156 1.38.522 1.836 1.098.468.564.702 1.23.702 1.998 0 1.068-.36 1.914-1.08 2.538-.708.612-1.74.918-3.096.918h-5.454V10.292h5.346c1.284 0 2.268.282 2.952.846.696.564 1.044 1.356 1.044 2.376 0 .792-.21 1.44-.63 1.944-.408.504-.948.834-1.62.99Zm-4.554-.828h2.286c.636 0 1.116-.138 1.44-.414.336-.288.504-.696.504-1.224s-.162-.936-.486-1.224c-.324-.288-.822-.432-1.494-.432h-2.25v3.294Zm2.412 5.31c.672 0 1.188-.144 1.548-.432.36-.3.54-.732.54-1.296 0-.564-.186-.996-.558-1.296-.36-.312-.876-.468-1.548-.468h-2.394v3.492h2.412Zm10.364-8.028c.84 0 1.56.198 2.16.594.6.396 1.026.93 1.278 1.602v-2.07h2.52V23h-2.52v-2.088a3.332 3.332 0 0 1-1.278 1.62c-.6.396-1.32.594-2.16.594-.84 0-1.596-.204-2.268-.612-.672-.408-1.2-.996-1.584-1.764-.372-.78-.558-1.692-.558-2.736 0-1.044.186-1.95.558-2.718.384-.78.912-1.374 1.584-1.782.672-.408 1.428-.612 2.268-.612Zm.792 2.214c-.792 0-1.428.258-1.908.774s-.72 1.224-.72 2.124c0 .9.24 1.608.72 2.124.48.504 1.116.756 1.908.756.768 0 1.398-.258 1.89-.774.504-.528.756-1.23.756-2.106 0-.888-.252-1.59-.756-2.106-.492-.528-1.122-.792-1.89-.792Zm13.406-2.232c1.152 0 2.07.378 2.754 1.134.684.756 1.026 1.818 1.026 3.186V23h-2.52v-5.508c0-.792-.204-1.404-.612-1.836-.408-.444-.966-.666-1.674-.666-.72 0-1.296.234-1.728.702-.432.468-.648 1.14-.648 2.016V23H96.99v-9.972h2.538v1.998a3.144 3.144 0 0 1 1.296-1.566c.612-.384 1.314-.576 2.106-.576ZM114.775 23l-3.294-4.356V23h-2.538V9.68h2.538v7.488l3.276-4.14h3.006l-4.194 4.968L117.871 23h-3.096Z" fill="#5CE1E6"/><path d="M16.406 0a16 16 0 1 0 16 16h-8a8 8 0 1 1-8-8V0Z" fill="#fff"/><path d="M16.406 0a16 16 0 0 0-16 16h8a8 8 0 0 1 8-8V0Z" fill="#5CE1E6"/><circle cx="16.406" cy="16" r="5" fill="#5CE1E6"/><path d="M21.406 16a5 5 0 1 0-10 0h10Z" fill="#fff"/></svg>
